!!!OTL: FREUNDLICH GLAENZT AN STILLER QUELLE
!!!ARE: Europa, Mitteleuropa, Deutschland
!!!SCT: B0192
!!!YEM: Copyright 1995, estate of Helmut Schaffrath.
**kern
*ICvox
*Ivox
*M4/4
*k[b-]
*F:
{4cc
4b-
=1
4a
4g
4f
4g
=2
4a
4f}
{4ff
4ee
=3
4dd
4cc
4.cc
8b-
=4
4a
4r}
{4g
4a
=5
4b-
4g
4a
4b-
=6
4cc
4a}
{8ff
8ee
8ff
8dd
=7
4cc
4a
4b-
4cc
=8
4b-
8a
8r}
{8ff
8ee
8ff
8dd
=9
4.cc
8a
4b-
4g
=10
4f
4r}
==
!!!AGN: Natur - Lied
!!!ONB: ESAC (Essen Associative Code) Database: BOEHME
!!!AMT: simple quadruple
!!!AIN: vox
!!!EED: Helmut Schaffrath
!!!EEV: 1.0
*-
